images/cheked-card2.svg

<svg width="40" height="40" viewBox="0 0 40 40" fill="none" xmlns="http://www.w3.org/2000/svg">
<g id="best-price 1">
<path id="Vector" d="M39.9916 12.2966C39.9912 11.6127 39.7223 11.0095 39.2137 10.5524L33.1337 5.08711C32.3774 4.4075 31.4239 3.71289 30.0833 3.71289C30.0829 3.71289 30.0823 3.71289 30.0819 3.71289C28.7404 3.71336 27.7868 4.40891 27.0309 5.0893L20.9548 10.5588C20.4465 11.0163 20.178 11.6197 20.1782 12.3037L20.181 19.3232H16.1458C16.8761 17.8066 17.3848 15.4108 16.8135 13.6168C16.4115 12.3542 15.5261 11.5219 14.2531 11.2097C14.0906 11.1698 13.919 11.1968 13.7766 11.2845C13.6341 11.3722 13.5328 11.5134 13.4952 11.6764C13.4259 11.9774 13.3618 12.2596 13.3016 12.5248C12.5509 15.8306 12.4544 16.2555 10.3809 17.6107C8.91602 18.5681 8.81203 18.6917 7.90102 20.0208C7.80797 20.1566 7.70531 20.3063 7.59039 20.4725C7.22148 21.0061 6.74953 21.2467 6.06367 21.2527L6.01078 21.2529V21.1032C6.01078 20.3248 5.3775 19.6915 4.59898 19.6915H1.41172C0.633281 19.6915 0 20.3248 0 21.1032V34.8738C0 35.6523 0.633281 36.2855 1.41172 36.2855H4.59906C5.3775 36.2855 6.01086 35.6523 6.01086 34.8738V34.2331C6.29258 34.3314 6.57422 34.4362 6.86422 34.5445C8.28414 35.0748 9.89344 35.6759 12.2829 35.6759H20.5795C20.9331 35.6759 21.2697 35.6021 21.5752 35.4697C21.8752 35.6046 22.2002 35.6759 22.5334 35.6759H22.534L37.6543 35.6707C38.9482 35.6702 40.0005 34.6171 39.9999 33.3232L39.9916 12.2966ZM4.76086 34.8738C4.76086 34.9615 4.6868 35.0355 4.59906 35.0355H1.41172C1.32406 35.0355 1.25 34.9615 1.25 34.8738V21.1032C1.25 21.0155 1.32406 20.9415 1.41172 20.9415H4.59906C4.6868 20.9415 4.76086 21.0155 4.76086 21.1032V34.8738ZM12.2829 34.4259C10.1193 34.4259 8.68688 33.8909 7.30164 33.3735C6.88344 33.2173 6.45461 33.0572 6.01094 32.9142V22.5029L6.07117 22.5027C7.16297 22.4932 8.02016 22.0492 8.61875 21.1832C8.73469 21.0155 8.8382 20.8645 8.93211 20.7275C9.77227 19.5018 9.77227 19.5018 11.0648 18.657C13.5615 17.0252 13.7455 16.2143 14.5205 12.8016C14.532 12.751 14.5437 12.6996 14.5555 12.6477C15.0705 12.9211 15.422 13.3666 15.6225 13.996C16.2122 15.8479 15.2823 18.6989 14.5547 19.539C14.3945 19.7239 14.357 19.9853 14.4587 20.2079C14.5604 20.4305 14.7825 20.5732 15.0272 20.5732H22.1725C22.8688 20.5732 23.4353 21.1397 23.4353 21.836C23.4353 22.5323 22.8688 23.0989 22.1725 23.0989H17.2463C16.9012 23.0989 16.6213 23.3787 16.6213 23.7239C16.6213 24.0691 16.9012 24.3489 17.2463 24.3489H23.2048C23.9012 24.3489 24.4677 24.9154 24.4677 25.6117C24.4677 26.308 23.9012 26.8746 23.2048 26.8746H17.2463C16.9012 26.8746 16.6213 27.1545 16.6213 27.4996C16.6213 27.8448 16.9012 28.1246 17.2463 28.1246H22.5559C23.2523 28.1246 23.8188 28.6911 23.8188 29.3874C23.8188 30.0837 23.2523 30.6502 22.5559 30.6502H17.2463C16.9012 30.6502 16.6213 30.9301 16.6213 31.2752C16.6213 31.6204 16.9012 31.9002 17.2463 31.9002H20.5795C21.2759 31.9002 21.8424 32.4668 21.8424 33.1631C21.8424 33.8595 21.2759 34.4259 20.5795 34.4259H12.2829ZM37.6538 34.4207L22.7506 34.4259C22.9674 34.0545 23.0923 33.6233 23.0923 33.1631C23.0923 32.7001 22.9665 32.2659 22.7472 31.893C24.0438 31.7949 25.0688 30.7086 25.0688 29.3874C25.0688 28.7744 24.848 28.2119 24.482 27.7752C25.221 27.3373 25.7177 26.5313 25.7177 25.6117C25.7177 24.5826 25.0957 23.696 24.208 23.3079C24.5082 22.8939 24.6853 22.3853 24.6853 21.836C24.6853 20.4505 23.558 19.3232 22.1725 19.3232H21.4311L21.4283 12.3033C21.4282 11.9745 21.5469 11.7078 21.7912 11.4879L27.8673 6.01836C28.6998 5.26891 29.3416 4.9632 30.0824 4.96289H30.0834C30.8235 4.96289 31.4654 5.26828 32.2982 6.01672L38.3782 11.482C38.6227 11.7018 38.7416 11.9684 38.7417 12.2972L38.75 33.3237C38.7502 33.9284 38.2585 34.4205 37.6538 34.4207ZM33.837 25.9627C33.9285 26.717 33.7263 27.4054 33.2523 27.9534C32.6948 28.598 31.7684 29.0301 30.7141 29.1513V29.9463C30.7141 30.2915 30.4343 30.5713 30.0891 30.5713C29.744 30.5713 29.4641 30.2915 29.4641 29.9463V29.1423C27.9029 28.9277 26.6893 27.9405 26.338 26.5313C26.2545 26.1964 26.4583 25.8572 26.7932 25.7737C27.1284 25.6907 27.4673 25.8941 27.5509 26.2289C27.8746 27.5273 29.1812 27.9605 30.2023 27.935C31.079 27.9141 31.9051 27.6005 32.307 27.1358C32.5509 26.8538 32.6455 26.5193 32.5962 26.1133C32.4795 25.1523 31.6779 24.6008 29.9969 24.3248C27.3216 23.8855 26.6986 22.5287 26.6472 21.4679C26.5758 19.998 27.6048 18.7659 29.2079 18.4023C29.292 18.3834 29.3775 18.3669 29.4643 18.3532V17.5403C29.4643 17.1952 29.7441 16.9153 30.0893 16.9153C30.4345 16.9153 30.7143 17.1952 30.7143 17.5403V18.3479C31.8586 18.5173 32.9874 19.1802 33.5514 20.5236C33.685 20.8418 33.5354 21.2082 33.2171 21.3418C32.8988 21.4755 32.5325 21.3258 32.3989 21.0075C31.8568 19.7164 30.5445 19.3811 29.4844 19.6216C28.6833 19.8032 27.8452 20.3678 27.8958 21.4074C27.9116 21.733 27.9596 22.7237 30.1995 23.0914C31.0293 23.2275 33.5553 23.6423 33.837 25.9627ZM30.084 12.0936C31.3113 12.0936 32.3098 11.0952 32.3098 9.86781C32.3098 8.64047 31.3113 7.64203 30.084 7.64203C28.8566 7.64203 27.8581 8.64047 27.8581 9.86781C27.8581 11.0952 28.8566 12.0936 30.084 12.0936ZM30.084 8.89195C30.622 8.89195 31.0598 9.32977 31.0598 9.86773C31.0598 10.4057 30.622 10.8435 30.084 10.8435C29.5459 10.8435 29.1081 10.4057 29.1081 9.86773C29.1081 9.32977 29.5459 8.89195 30.084 8.89195Z" fill="black"/>
</g>
</svg>

<svg xmlns="http://www.w3.org/2000/svg" width="40" height="40" fill="none"><path fill="#000" d="M39.992 12.297c0-.684-.27-1.288-.778-1.745l-6.08-5.465c-.757-.68-1.71-1.374-3.05-1.374h-.002c-1.342 0-2.295.696-3.051 1.376l-6.076 5.47a2.289 2.289 0 0 0-.777 1.745l.003 7.02h-4.035c.73-1.517 1.239-3.913.668-5.707-.402-1.263-1.288-2.095-2.56-2.407a.625.625 0 0 0-.759.466c-.07.301-.133.584-.193.849-.751 3.306-.848 3.73-2.921 5.086-1.465.957-1.569 1.08-2.48 2.41l-.31.451c-.37.534-.841.775-1.527.78H6.01v-.149c0-.778-.633-1.412-1.412-1.412H1.412c-.779 0-1.412.634-1.412 1.412v13.77c0 .78.633 1.413 1.412 1.413h3.187c.779 0 1.412-.634 1.412-1.412v-.64c.282.097.563.202.853.31 1.42.53 3.03 1.132 5.419 1.132h8.296c.354 0 .69-.074.996-.206.3.135.625.206.958.206h.001l15.12-.005A2.35 2.35 0 0 0 40 33.323l-.008-21.026ZM4.76 34.874a.164.164 0 0 1-.162.161H1.412a.164.164 0 0 1-.162-.161v-13.77c0-.088.074-.162.162-.162h3.187c.088 0 .162.073.162.161v13.77Zm7.522-.448c-2.164 0-3.596-.535-4.981-1.053a29.827 29.827 0 0 0-1.291-.459V22.503h.06c1.092-.01 1.95-.454 2.548-1.32l.313-.456c.84-1.225.84-1.225 2.133-2.07 2.497-1.632 2.68-2.443 3.456-5.855l.034-.154c.515.273.867.719 1.068 1.348.59 1.852-.34 4.703-1.068 5.543a.625.625 0 0 0 .472 1.034h7.146c.696 0 1.262.567 1.262 1.263s-.566 1.263-1.262 1.263h-4.927a.625.625 0 0 0 0 1.25h5.959c.696 0 1.263.566 1.263 1.263 0 .696-.567 1.263-1.263 1.263h-5.959a.625.625 0 0 0 0 1.25h5.31c.696 0 1.263.566 1.263 1.262 0 .697-.567 1.263-1.263 1.263h-5.31a.625.625 0 0 0 0 1.25h3.334c.696 0 1.262.567 1.262 1.263 0 .697-.566 1.263-1.262 1.263h-8.297Zm25.37-.005-14.902.005c.216-.372.341-.803.341-1.263 0-.463-.125-.897-.345-1.27a2.516 2.516 0 0 0 2.322-2.506c0-.613-.221-1.175-.587-1.612a2.514 2.514 0 0 0 1.236-2.163c0-1.03-.622-1.916-1.51-2.304a2.5 2.5 0 0 0 .477-1.472 2.516 2.516 0 0 0-2.512-2.513h-.742l-.003-7.02c0-.329.119-.595.363-.815l6.076-5.47c.833-.75 1.475-1.055 2.215-1.055h.001c.74 0 1.382.305 2.215 1.054l6.08 5.465c.245.22.364.486.364.815l.008 21.027c0 .604-.492 1.096-1.096 1.097Zm-3.816-8.458c.091.754-.11 1.442-.585 1.99-.557.645-1.484 1.077-2.538 1.198v.795a.625.625 0 1 1-1.25 0v-.804c-1.561-.214-2.775-1.201-3.126-2.61a.625.625 0 1 1 1.213-.303c.324 1.298 1.63 1.732 2.651 1.706.877-.02 1.703-.334 2.105-.8.244-.281.338-.616.29-1.022-.117-.96-.92-1.512-2.6-1.788-2.675-.44-3.298-1.796-3.35-2.857-.071-1.47.958-2.702 2.56-3.066.085-.019.17-.035.257-.049v-.813a.625.625 0 0 1 1.25 0v.808c1.145.17 2.273.832 2.837 2.176a.625.625 0 1 1-1.152.483c-.542-1.29-1.855-1.626-2.915-1.385-.8.181-1.639.746-1.588 1.785.016.326.064 1.317 2.303 1.684.83.136 3.356.551 3.638 2.872Zm-3.753-13.87a2.228 2.228 0 0 0 2.226-2.225 2.228 2.228 0 0 0-2.226-2.226 2.228 2.228 0 0 0-2.226 2.226c0 1.227.999 2.226 2.226 2.226Zm0-3.201a.977.977 0 0 1 0 1.952.977.977 0 0 1 0-1.952Z"/></svg>
